svg/notebook_check.svg

<svg xmlns="http://www.w3.org/2000/svg" viewBox="0 0 24 24"><path d="m16.75 22.16-2.75-3L15.16 18l1.59 1.59L20.34 16l1.16 1.41zM3 7V5h2V4a2 2 0 0 1 2-2h6v7l2.5-1.5L18 9V2h1c1.05 0 2 .95 2 2v9.8a6.005 6.005 0 0 0-8.2 8.2H7c-1.05 0-2-.95-2-2v-1H3v-2h2v-4H3v-2h2V7zm2-2v2h2V5zm0 14h2v-2H5zm0-6h2v-2H5z"/></svg>

<?xml version="1.0" encoding="UTF-8"?><!DOCTYPE svg PUBLIC "-//W3C//DTD SVG 1.1//EN" "http://www.w3.org/Graphics/SVG/1.1/DTD/svg11.dtd"><svg xmlns="http://www.w3.org/2000/svg" xmlns:xlink="http://www.w3.org/1999/xlink" version="1.1" id="mdi-notebook-check" width="24" height="24" viewBox="0 0 24 24"><path d="M16.75 22.16L14 19.16L15.16 18L16.75 19.59L20.34 16L21.5 17.41L16.75 22.16M3 7V5H5V4C5 2.89 5.9 2 7 2H13V9L15.5 7.5L18 9V2H19C20.05 2 21 2.95 21 4V13.8C20.12 13.29 19.09 13 18 13C14.69 13 12 15.69 12 19C12 20.09 12.29 21.12 12.8 22H7C5.95 22 5 21.05 5 20V19H3V17H5V13H3V11H5V7H3M5 5V7H7V5H5M5 19H7V17H5V19M5 13H7V11H5V13Z" /></svg>
